X: 38891
T: Sunset On The Ouseburn
R: reel
M: 4/4
K: Cmajor
CD|:EG, (3G,G,G, EDEG|AcGc AcGF|EG, (3G,G,G, CB,CD|EDCB, A,2CD|
EG, (3G,G,G, EDEG|AcGc ABcd|egdB cAGB|ADDC D2CD:|
|:EGAE GEDE|GA (3BAG A2AB|cBcd egdB|cAGE DECD|
EGAE GEDE|GA (3BAG A2 a2|gedB cedB|1 cAGE C2CD:|2 cAGE C2||

